round/svg/subscriptions.svg

<svg xmlns="http://www.w3.org/2000/svg" width="24" height="24"><path d="M19 8H5c-.55 0-1-.45-1-1s.45-1 1-1h14c.55 0 1 .45 1 1s-.45 1-1 1zm-2-6H7c-.55 0-1 .45-1 1s.45 1 1 1h10c.55 0 1-.45 1-1s-.45-1-1-1zm5 10v8c0 1.1-.9 2-2 2H4c-1.1 0-2-.9-2-2v-8c0-1.1.9-2 2-2h16c1.1 0 2 .9 2 2zm-6.81 3.56L10 12.73v6.53l5.19-2.82a.5.5 0 0 0 0-.88z" fill="currentColor"/></svg>

<?xml version="1.0" encoding="utf-8"?>
<!-- Generator: Adobe Illustrator 19.1.0, SVG Export Plug-In . SVG Version: 6.00 Build 0)  -->
<svg version="1.1" xmlns="http://www.w3.org/2000/svg" xmlns:xlink="http://www.w3.org/1999/xlink" x="0px" y="0px" width="24px"
	 height="24px" viewBox="0 0 24 24" enable-background="new 0 0 24 24" xml:space="preserve">
<g id="Bounding_Boxes" display="none">
	<path display="inline" fill="none" d="M0,0h24v24H0V0z"/>
</g>
<g id="Rounded" fill="currentColor">
	<path d="M19,8H5C4.45,8,4,7.55,4,7v0c0-0.55,0.45-1,1-1h14c0.55,0,1,0.45,1,1v0C20,7.55,19.55,8,19,8z M17,2H7C6.45,2,6,2.45,6,3v0
		c0,0.55,0.45,1,1,1h10c0.55,0,1-0.45,1-1v0C18,2.45,17.55,2,17,2z M22,12v8c0,1.1-0.9,2-2,2H4c-1.1,0-2-0.9-2-2v-8c0-1.1,0.9-2,2-2
		h16C21.1,10,22,10.9,22,12z M15.19,15.56L10,12.73v6.53l5.19-2.82C15.54,16.25,15.54,15.75,15.19,15.56z"/>
</g>
</svg>
